svg/map/world_2_line.svg

<?xml version="1.0" encoding="UTF-8"?>
<svg width="24px" height="24px" viewBox="0 0 24 24" version="1.1" xmlns="http://www.w3.org/2000/svg" xmlns:xlink="http://www.w3.org/1999/xlink">
    <title>world_2_line</title>
    <g id="Icon" stroke="none" stroke-width="1" fill="none" fill-rule="evenodd">
        <g id="Map" transform="translate(-336.000000, 0.000000)">
            <g id="world_2_line" transform="translate(336.000000, 0.000000)">
                <path d="M24,0 L24,24 L0,24 L0,0 L24,0 Z M12.5935,23.2578 L12.5819,23.2595 L12.5109,23.295 L12.4919,23.2987 L12.4767,23.295 L12.4057,23.2595 C12.3958,23.2564 12.387,23.259 12.3821,23.2649 L12.378,23.2758 L12.3609,23.7031 L12.3659,23.7235 L12.3769,23.7357 L12.4805,23.8097 L12.4953,23.8136 L12.5071,23.8097 L12.6107,23.7357 L12.6233,23.7197 L12.6267,23.7031 L12.6096,23.2758 C12.6076,23.2657 12.601,23.2593 12.5935,23.2578 Z M12.8584,23.1453 L12.8445,23.1473 L12.6598,23.2397 L12.6499,23.2499 L12.6472,23.2611 L12.6651,23.6906 L12.6699,23.7034 L12.6784,23.7105 L12.8793,23.8032 C12.8914,23.8069 12.9022,23.803 12.9078,23.7952 L12.9118,23.7812 L12.8777,23.1665 C12.8753,23.1546 12.8674,23.147 12.8584,23.1453 Z M12.143,23.1473 C12.1332,23.1424 12.1222,23.1453 12.1156,23.1526 L12.1099,23.1665 L12.0758,23.7812 C12.0751,23.7927 12.0828,23.8019 12.0926,23.8046 L12.1083,23.8032 L12.3092,23.7105 L12.3186,23.7024 L12.3225,23.6906 L12.3404,23.2611 L12.3372,23.2485 L12.3278,23.2397 L12.143,23.1473 Z" id="MingCute" fill-rule="nonzero"></path>
                <path d="M12,2 C17.5228,2 22,6.47715 22,12 C22,16.2998 19.2863,19.9657 15.4781,21.3785 C15.4148,21.4129 15.3468,21.4409 15.2747,21.4615 L15.1802,21.4837 C14.1812,21.8186 13.1118,22 12,22 C6.47715,22 2,17.5228 2,12 C2,6.47715 6.47715,2 12,2 Z M14.9106,4.54596 L14.7344,5.42702 C14.5027,6.58542 13.6128,7.50001 12.4611,7.76325 L12.0597,7.85499 C11.5439,7.9729 11.2092,8.47229 11.2962,8.99425 L11.4709,10.0425 C11.7151,11.5076 10.3334,12.7183 8.91309,12.2839 L7.62249,11.8891 C6.36132,11.5033 5.5,10.3391 5.5,9.02029 L5.5,7.33528 C4.55596,8.64841 4,10.2593 4,12 C4,16.4183 7.58172,20 12,20 C12.6052,20 13.1948,19.9328 13.7615,19.8054 L13.1809,17.773 C13.1342,17.6096 13.0466,17.4608 12.9264,17.3406 L11.6879,16.1021 C11.0557,15.47 11.1134,14.4286 11.8115,13.8702 L13.3757,12.6188 C13.9848,12.1315 14.8218,12.0428 15.5195,12.3917 L16.9898,13.1269 C17.887,13.5755 18.5006,14.4428 18.625,15.4381 L18.7352,16.319 C19.5357,15.0732 20,13.5908 20,12 C20,8.6086 17.8897,5.71009 14.9106,4.54596 Z M14.6251,14.1806 L13.4971,15.0829 L14.3406,15.9264 C14.6496857,16.2354 14.8867714,16.6075837 15.0364286,17.0163131 L15.1039,17.2236 L15.6465,19.1225 C15.997275,18.942575 16.3330875,18.73745 16.6514906,18.5095297 L16.964,18.2741 L16.6405,15.6861 C16.6041875,15.3958625 16.4430781,15.1382406 16.2029945,14.9781498 L16.0954,14.9157 L14.6251,14.1806 Z M12,4 C10.3287,4 8.77718,4.51247 7.49389,5.38885 C7.49792,5.42534 7.5,5.46243 7.5,5.5 L7.5,9.02029 C7.5,9.45991 7.78711,9.84797 8.20749,9.97656 L9.49809,10.3713 L9.32338,9.32305 C9.0624,7.75715 10.0665,6.25901 11.6141,5.90528 L12.0155,5.81353 C12.3994,5.72578 12.696,5.42092 12.7732,5.03479 L12.9686,4.05804 C12.6511,4.01972 12.3278,4 12,4 Z" id="形状" fill="#09244B"></path>
            </g>
        </g>
    </g>
</svg>

<svg xmlns="http://www.w3.org/2000/svg" width="24" height="24"><g fill="none" fill-rule="evenodd"><path d="M24 0v24H0V0h24ZM12.594 23.258l-.012.002-.071.035-.02.004-.014-.004-.071-.036c-.01-.003-.019 0-.024.006l-.004.01-.017.428.005.02.01.013.104.074.015.004.012-.004.104-.074.012-.016.004-.017-.017-.427c-.002-.01-.009-.017-.016-.018Zm.264-.113-.014.002-.184.093-.01.01-.003.011.018.43.005.012.008.008.201.092c.012.004.023 0 .029-.008l.004-.014-.034-.614c-.003-.012-.01-.02-.02-.022Zm-.715.002a.023.023 0 0 0-.027.006l-.006.014-.034.614c0 .012.007.02.017.024l.015-.002.201-.093.01-.008.003-.011.018-.43-.003-.012-.01-.01-.184-.092Z"/><path fill="#09244B" d="M12 2c5.523 0 10 4.477 10 10 0 4.3-2.714 7.966-6.522 9.378a1.002 1.002 0 0 1-.203.084l-.095.022A9.988 9.988 0 0 1 12 22C6.477 22 2 17.523 2 12S6.477 2 12 2Zm2.91 2.546-.176.881a3 3 0 0 1-2.273 2.336l-.401.092a1 1 0 0 0-.764 1.14l.175 1.048a2 2 0 0 1-2.558 2.24l-1.29-.394A3 3 0 0 1 5.5 9.02V7.335a8 8 0 0 0 8.262 12.47l-.581-2.032a1 1 0 0 0-.255-.432l-1.238-1.239a1.5 1.5 0 0 1 .123-2.232l1.565-1.251a2 2 0 0 1 2.144-.227l1.47.735a3 3 0 0 1 1.635 2.311l.11.881A8.003 8.003 0 0 0 14.91 4.546Zm-.285 9.635-1.128.902.844.843a3 3 0 0 1 .695 1.09l.068.208.543 1.898c.35-.18.686-.385 1.004-.612l.313-.236-.323-2.588a1 1 0 0 0-.438-.708l-.108-.062-1.47-.735ZM12 4a7.963 7.963 0 0 0-4.506 1.389c.004.036.006.073.006.111v3.52a1 1 0 0 0 .707.957l1.291.394-.175-1.048a3 3 0 0 1 2.291-3.418l.401-.091a1 1 0 0 0 .758-.78l.196-.976A8.082 8.082 0 0 0 12 4Z"/></g></svg>
